web/packages/design/src/ResourceIcon/assets/headliner.svg

<svg width="72" height="72" viewBox="0 0 72 72" fill="none" xmlns="http://www.w3.org/2000/svg">
<g clip-path="url(#clip0_16877_15408)">
<path d="M36 2.81213C40.4813 2.81213 44.828 3.68929 48.9162 5.41971C50.8811 6.25126 52.7788 7.28038 54.5526 8.47887C56.3112 9.66649 57.9635 11.03 59.4659 12.5324C60.9683 14.0349 62.3319 15.6871 63.5195 17.4457C64.7179 19.2196 65.7471 21.1151 66.5786 23.0821C68.309 27.1726 69.1862 31.5171 69.1862 35.9983C69.1862 40.4796 68.309 44.8263 66.5786 48.9145C65.7471 50.8794 64.7179 52.7771 63.5195 54.5508C62.3319 56.3095 60.9683 57.9618 59.4659 59.4642C57.9635 60.9666 56.3112 62.3302 54.5526 63.5177C52.7788 64.7163 50.8833 65.7454 48.9162 66.5769C44.8258 68.3074 40.4813 69.1845 36 69.1845C31.5188 69.1845 27.172 68.3074 23.0838 66.5769C21.1189 65.7454 19.2212 64.7163 17.4475 63.5177C15.6888 62.3302 14.0365 60.9666 12.5341 59.4642C11.0317 57.9618 9.66818 56.3095 8.48056 54.5508C7.28207 52.7771 6.25294 50.8816 5.42139 48.9145C3.69097 44.8241 2.81383 40.4796 2.81383 35.9983C2.81383 31.5171 3.69097 27.1704 5.42139 23.0821C6.25294 21.1172 7.28207 19.2196 8.48056 17.4457C9.66818 15.6871 11.0317 14.0349 12.5341 12.5324C14.0365 11.03 15.6888 9.66649 17.4475 8.47887C19.2212 7.28038 21.1167 6.25126 23.0838 5.41971C27.172 3.68929 31.5188 2.81213 36 2.81213ZM36 0.000488281C16.1165 0.000488281 0 16.117 0 36.0005C0 55.8818 16.1165 72.0005 36 72.0005C55.8835 72.0005 72 55.884 72 36.0005C71.9979 16.117 55.8813 0.000488281 36 0.000488281ZM50.3775 54.9438C46.2002 58.0399 41.2651 59.6748 36.3322 59.6748C33.7355 59.6748 31.141 59.2948 28.6528 58.5133C26.1647 57.7316 23.7873 56.5506 21.6182 54.9417C20.9951 54.4793 20.1136 54.6095 19.6512 55.2348C19.1887 55.8579 19.319 56.7394 19.9443 57.2018C22.376 59.0039 25.04 60.3262 27.8104 61.1968C30.583 62.0674 33.4619 62.4865 36.3322 62.4865C41.886 62.4865 47.403 60.6475 52.0514 57.2018C52.6745 56.7394 52.807 55.8579 52.3445 55.2348C51.882 54.6117 51.0028 54.4814 50.3775 54.9438ZM39.4478 39.4527V44.4745C39.4478 47.7248 42.0814 50.3583 45.3317 50.3583C48.582 50.3583 51.2155 47.7248 51.2155 44.4745V23.2167C51.2155 19.9664 48.582 17.3329 45.3317 17.3329C42.0814 17.3329 39.4478 19.9664 39.4478 23.2167V35.9897H32.5479V23.2167C32.5479 19.9664 29.9143 17.3329 26.664 17.3329C23.4138 17.3329 20.7802 19.9664 20.7802 23.2167V44.4745C20.7802 47.7248 23.4138 50.3583 26.664 50.3583C29.9143 50.3583 32.5479 47.7248 32.5479 44.4745V39.4527H39.4478Z" fill="url(#paint0_linear_16877_15408)"/>
</g>
<defs>
<linearGradient id="paint0_linear_16877_15408" x1="7.52373e-07" y1="34.3626" x2="323.527" y2="103.372" gradientUnits="userSpaceOnUse">
<stop stop-color="#5DBEFC"/>
<stop offset="1" stop-color="#DD92FE"/>
</linearGradient>
<clipPath id="clip0_16877_15408">
<rect width="72" height="72" fill="white" transform="translate(0 0.000488281)"/>
</clipPath>
</defs>
</svg>

<svg xmlns="http://www.w3.org/2000/svg" width="72" height="72" fill="none" viewBox="0 0 72 72"><g clip-path="url(#a)"><path fill="url(#b)" d="M36 2.812c4.481 0 8.828.877 12.916 2.608a33.2 33.2 0 0 1 10.55 7.112 33.4 33.4 0 0 1 4.053 4.914 33 33 0 0 1 3.06 5.636 33 33 0 0 1 2.607 12.916c0 4.482-.877 8.828-2.607 12.917a33.2 33.2 0 0 1-7.113 10.55 33.4 33.4 0 0 1-4.913 4.053 33 33 0 0 1-5.637 3.059A33 33 0 0 1 36 69.185c-4.481 0-8.828-.878-12.916-2.608a33.2 33.2 0 0 1-10.55-7.113 33.4 33.4 0 0 1-4.053-4.913 33 33 0 0 1-3.06-5.637 33 33 0 0 1-2.607-12.916c0-4.48.877-8.828 2.607-12.916a33.2 33.2 0 0 1 7.113-10.55 33.4 33.4 0 0 1 4.914-4.053 33 33 0 0 1 5.636-3.06A33 33 0 0 1 36 2.813M36 0C16.117 0 0 16.117 0 36s16.116 36 36 36c19.883 0 36-16.116 36-36-.002-19.883-16.119-36-36-36m14.377 54.944c-4.177 3.096-9.112 4.73-14.045 4.73-2.596 0-5.191-.38-7.68-1.16a23.7 23.7 0 0 1-7.034-3.572 1.405 1.405 0 1 0-1.674 2.26 26.6 26.6 0 0 0 7.866 3.995 28.5 28.5 0 0 0 8.522 1.29c5.554 0 11.071-1.84 15.72-5.285a1.406 1.406 0 1 0-1.674-2.258m-10.93-15.491v5.021a5.883 5.883 0 0 0 5.885 5.884 5.883 5.883 0 0 0 5.883-5.883V23.217a5.883 5.883 0 0 0-5.883-5.884 5.883 5.883 0 0 0-5.884 5.884V35.99h-6.9V23.217a5.883 5.883 0 0 0-5.884-5.884 5.883 5.883 0 0 0-5.884 5.884v21.258a5.883 5.883 0 0 0 5.884 5.883 5.883 5.883 0 0 0 5.884-5.883v-5.022z"/></g><defs><linearGradient id="b" x1="0" x2="323.527" y1="34.363" y2="103.372" gradientUnits="userSpaceOnUse"><stop stop-color="#5dbefc"/><stop offset="1" stop-color="#dd92fe"/></linearGradient><clipPath id="a"><path fill="#fff" d="M0 0h72v72H0z"/></clipPath></defs></svg>
